X:399
%%etbk:tnset id:116,pos:2,rep:3x,ant:
%%etbk:tnset id:377,pos:3,rep:3x,ant:
%%etbk:wsite http://www.thesession.org/tunes/display/1841
%%etbk:pldat 2016-08-18T19:05,2016-08-17T16:27,2016-08-16T16:30,2016-08-12T15:54,2016-08-09T15:27,2016-05-19T18:46,2016-05-18T16:37,2016-05-17T16:09,2016-05-16T14:43,2016-05-14T16:00,2016-05-10T18:29,2015-11-20T16:20,2015-11-18T16:10,2015-11-17T16:29,2015-11-15T14:25,2015-11-14T15:12,2015-11-08T13:29,2015-09-10T16:30,2015-09-09T16:51,2015-09-03T16:42,2015-09-02T16:40,2015-09-01T16:33,2015-08-31T18:55,2015-08-30T14:49,2015-08-26T15:56,2015-08-06T17:53,2015-08-05T16:32,2015-08-04T16:58,2015-08-03T18:32,2015-08-02T11:34,2015-07-31T17:46,2015-07-27T18:26,2015-06-26T17:11,2015-06-18T18:19,2015-06-16T16:25,2015-05-28T18:54,2015-05-07T18:53,2015-04-23T18:51,2015-04-21T15:43,2015-04-16T19:19,2015-04-15T16:45,2015-04-13T18:57,2015-04-12T11:26,2015-04-11T14:41,2015-03-19T19:16,2015-03-18T16:45,2015-03-16T19:37,2015-03-15T14:24,2015-03-11T16:04,2015-03-04T16:07,2015-02-22T15:45,2015-02-21T17:04,2015-02-19T19:52,2015-02-18T16:17,2015-02-17T16:21,2015-02-16T18:21,2015-02-13T18:43,2015-02-11T16:58,2015-02-10T17:08,2015-02-09T19:21,2015-01-29T18:19,2014-12-30T18:38,2014-12-27T14:58,2014-12-15T16:21,2014-12-01T19:11,2014-09-30T16:12,2014-07-05T13:57,2014-07-02T10:29,2014-03-27T18:16,2014-03-22T15:54,2014-03-14T18:01,2014-02-25T19:49,2014-02-18T17:07,2014-02-12T18:27,2014-02-11T16:18,2013-12-11T18:45,2013-11-26T17:10,2013-11-17T15:58,2013-11-06T16:46,2013-10-24T19:03,2013-10-23T18:35,2013-10-21T17:50,2013-10-20T13:55,2013-09-12T18:22,2013-09-11T19:00,2013-08-29T15:28,2013-08-27T18:29,2013-08-26T17:56,2013-05-22T17:17,2013-05-15T16:09
T: O'Keefe's
Z: Piano Box Version by Martin Fleischmann
H: Created 2013-02-19 /  Last Modified 2013-02-19
M: 2/4
L: 1/8
R: polka
K: Bmin
|:"bm"!2!d!1!B !5!bB | !2!de !4!f>e | !2!d!1!B !5!bB |"A"!3!c/B/A/c/ !5!e!4!f/e/|!
"bm"!2!d!1!B !5!bB | !2!de !4!f>e | !2!d>e "f#m"!4!f/e/d | "bm" !1!B2B2:|
|:"bm"!2!f!1!e/f/ !5!ba | !2!f!1!e !4!f>!3!e | !2!d!1!B !5!bB | "A" !3!c/B/A/c/ !5!e!1!d/e/ |!
"bm" !3!f!1!e/!2!f/ !5!ba | !2!f!1!e !4!f>e | !2!d>e "f#m"!4!f/e/d | "bm" !1!B2 B2:|


